src/icon/category/category-travel/icon_category-travel_xl_white.svg

<svg width="36" height="36" viewBox="0 0 36 36" xmlns="http://www.w3.org/2000/svg"><g fill="none" fill-rule="evenodd"><path d="M0 0h36v36H0z"/><g fill="#FFF" fill-rule="nonzero"><path d="M14 33.667c0 .736.597 1.333 1.333 1.333h5.333c.737 0 1.334-.597 1.334-1.333V31h-8v2.667z" opacity=".3"/><path d="M22.078 29v-.5c0-1.818 1.162-3.872 3.163-5.618a12.103 12.103 0 0 0 2.09-2.046c1.527-1.788 2.376-3.861 2.596-6.33.049-.466.073-.899.073-1.323C30 6.465 24.617 1 18 1S6 6.465 6 13.183c0 .425.024.857.073 1.314.22 2.48 1.072 4.556 2.591 6.332.596.75 1.302 1.44 2.073 2.034 2.025 1.765 3.186 3.819 3.186 5.637v.5h8.155zM11.37 22.091a11.225 11.225 0 0 1-1.935-1.898c-1.41-1.648-2.162-3.486-2.367-5.792-.046-.431-.068-.83-.068-1.218C7 7.017 11.935 2 18 2s11 5.017 11 11.183c0 .389-.022.787-.069 1.227-.204 2.297-.956 4.135-2.366 5.783l-.012.014a11.235 11.235 0 0 1-1.946 1.903c-1.241 1.08-3.274 3.234-3.507 5.89h-6.2c-.233-2.656-2.267-4.811-3.53-5.909z"/><path d="M18 1c-3.794 0-7 4.95-7 10.809 0 4.05 1.224 6.614 2.407 9.096 1.083 2.271 2.107 4.418 2.107 7.596h1c0-3.404-1.121-5.754-2.205-8.026C13.174 18.093 12 15.632 12 11.809c0-4.951 2.517-9.318 5.5-9.764v25.568h1V2.044c2.983.446 5.5 4.813 5.5 9.764 0 3.823-1.174 6.284-2.31 8.665-1.084 2.272-2.205 4.622-2.205 8.026h1c0-3.178 1.024-5.324 2.107-7.596C23.776 18.423 25 15.858 25 11.809 25 5.95 21.794 1 18 1z" opacity=".3"/></g></g></svg>

<?xml version="1.0" encoding="UTF-8"?>
<svg width="36px" height="36px" viewBox="0 0 36 36" version="1.1" xmlns="http://www.w3.org/2000/svg" xmlns:xlink="http://www.w3.org/1999/xlink">
    <!-- Generator: Sketch 48.2 (47327) - http://www.bohemiancoding.com/sketch -->
    <title>icon_category-travel_xl_white</title>
    <desc>Created with Sketch.</desc>
    <defs></defs>
    <g id="mobile" stroke="none" stroke-width="1" fill="none" fill-rule="evenodd" transform="translate(-1083.000000, -894.000000)">
        <g id="Headings" transform="translate(64.000000, 77.000000)">
            <g id="icon_category_tourism__xl__white" transform="translate(1019.000000, 817.000000)">
                <g id="ungroup">
                    <rect id="Rectangle-path" x="0" y="0" width="36" height="36"></rect>
                    <g id="a1" opacity="0.4"></g>
                    <path d="M14,33.667 C14,34.403 14.597,35 15.333,35 L20.666,35 C21.403,35 22,34.403 22,33.667 L22,31 L14,31 L14,33.667 L14,33.667 Z" id="Shape" fill="#FFFFFF" opacity="0.3"></path>
                    <path d="M22.078,29 L22.078,28.5 C22.078,26.682 23.24,24.628 25.241,22.882 C26.033,22.273 26.735,21.584 27.331,20.836 C28.858,19.048 29.707,16.975 29.927,14.506 C29.976,14.04 30,13.607 30,13.183 C30,6.465 24.617,1 18,1 C11.383,1 6,6.465 6,13.183 C6,13.608 6.024,14.04 6.073,14.497 C6.293,16.977 7.145,19.053 8.664,20.829 C9.26,21.579 9.966,22.269 10.737,22.863 C12.762,24.628 13.923,26.682 13.923,28.5 L13.923,29 L22.078,29 L22.078,29 Z M11.37,22.091 C10.64,21.528 9.993,20.894 9.435,20.193 C8.025,18.545 7.273,16.707 7.068,14.401 C7.022,13.97 7,13.571 7,13.183 C7,7.017 11.935,2 18,2 C24.065,2 29,7.017 29,13.183 C29,13.572 28.978,13.97 28.931,14.41 C28.727,16.707 27.975,18.545 26.565,20.193 L26.553,20.207 C26.007,20.895 25.36,21.528 24.607,22.11 C23.366,23.19 21.333,25.344 21.1,28 L14.9,28 C14.667,25.344 12.633,23.189 11.37,22.091 L11.37,22.091 Z" id="Shape" fill="#FFFFFF"></path>
                    <path d="M18,1 C14.206,1 11,5.95 11,11.809 C11,15.859 12.224,18.423 13.407,20.905 C14.49,23.176 15.514,25.323 15.514,28.501 L16.514,28.501 C16.514,25.097 15.393,22.747 14.309,20.475 C13.174,18.093 12,15.632 12,11.809 C12,6.858 14.517,2.491 17.5,2.045 L17.5,27.613 L18.5,27.613 L18.5,2.044 C21.483,2.49 24,6.857 24,11.808 C24,15.631 22.826,18.092 21.69,20.473 C20.606,22.745 19.485,25.095 19.485,28.499 L20.485,28.499 C20.485,25.321 21.509,23.175 22.592,20.903 C23.776,18.423 25,15.858 25,11.809 C25,5.95 21.794,1 18,1 L18,1 Z" id="Shape" fill="#FFFFFF" opacity="0.3"></path>
                </g>
            </g>
        </g>
    </g>
</svg>
